img/icon/teacher-3.svg

<svg width="90" height="90" viewBox="0 0 90 90" fill="none" xmlns="http://www.w3.org/2000/svg">
<circle cx="45" cy="45" r="45" fill="white"/>
<mask id="mask0" mask-type="alpha" maskUnits="userSpaceOnUse" x="0" y="0" width="90" height="90">
<circle cx="45" cy="45" r="45" fill="#C4C4C4"/>
</mask>
<g mask="url(#mask0)">
<path d="M71.7255 67.8683L60.7963 65.8261C60.7258 65.8135 60.654 65.8067 60.5824 65.8067H30.2912C30.2195 65.8067 30.1479 65.8135 30.0773 65.8261L19.0492 67.8921C13.4266 69.4668 10.4854 75.0053 10.4854 79.6632V86.0471C10.4854 88.3771 12.5755 90.2727 15.1456 90.2727H75.728C78.2981 90.2727 80.3882 88.3771 80.3882 86.0471V79.6632C80.3882 75.0053 77.4472 69.4668 71.7255 67.8683Z" fill="#007AFF"/>
<path d="M51.0836 90.2723L48.9159 77.2657C48.8226 76.7037 48.3367 76.2917 47.7667 76.2917H43.1066C42.5366 76.2917 42.0507 76.7036 41.9574 77.2657L39.7897 90.2723H51.0836Z" fill="#B097FF"/>
<path d="M43.1067 76.2917C42.8091 76.2917 42.5383 76.4081 42.3304 76.5955L50.0992 84.3651L49.4402 80.4111L45.3213 76.2917H43.1067Z" fill="#7047F0"/>
<path d="M50.089 70.4885C50.0878 69.8456 49.5668 69.3257 48.924 69.3257H43.0987C42.6573 69.3257 42.2545 69.5749 42.0566 69.9697L40.8916 72.2998C40.8096 72.4625 40.7675 72.6423 40.7686 72.8254L40.7766 75.1281C40.7766 77.0544 42.3445 78.6221 44.2718 78.6221H46.6019C48.5292 78.6221 50.097 77.0542 50.097 75.1246L50.089 70.4885Z" fill="#7047F0"/>
<path d="M45.9966 65.9786L35.5192 60.1294C35.0107 59.8439 34.3712 59.9827 34.022 60.4446L29.6247 66.2698C29.3243 66.668 29.3095 67.2131 29.5894 67.6249L36.6923 78.1092C37.0837 78.686 37.706 79.0546 38.3989 79.1206C38.4741 79.1274 38.5491 79.1308 38.6231 79.1308C39.2375 79.1308 39.8268 78.8896 40.2671 78.4504C40.2967 78.4208 40.325 78.3889 40.3513 78.356L45.1786 72.3624C45.2309 72.2986 45.2765 72.2282 45.3129 72.1542L46.4699 69.848C46.5519 69.6865 46.594 69.5066 46.594 69.3257V66.9956C46.594 66.5736 46.3652 66.1845 45.9966 65.9786Z" fill="#F2F2F2"/>
<path d="M44.8611 65.9786L55.3385 60.1294C55.847 59.8439 56.4865 59.9827 56.8357 60.4446L61.233 66.2698C61.5335 66.668 61.5482 67.2131 61.2683 67.6249L54.1654 78.1092C53.774 78.686 53.1517 79.0546 52.4588 79.1206C52.3836 79.1274 52.3086 79.1308 52.2347 79.1308C51.6202 79.1308 51.0309 78.8896 50.5906 78.4504C50.5611 78.4208 50.5327 78.3889 50.5065 78.356L45.6792 72.3624C45.627 72.2986 45.5814 72.2282 45.545 72.1542L44.3879 69.848C44.3059 69.6865 44.2639 69.5066 44.2639 69.3257V66.9956C44.2639 66.5736 44.4925 66.1845 44.8611 65.9786Z" fill="#F2F2F2"/>
<path d="M61.7395 37.8692L59.4413 35.5391C59.4413 35.5391 51.5453 33.4031 34.9434 35.5391L27.9531 37.8692C27.9531 39.4711 27.9531 40.425 27.9531 46.0245C27.9531 57.6064 35.7773 66.9953 45.4288 66.9953C55.0804 66.9953 62.9045 57.6064 62.9045 46.0245C62.9045 44.145 62.9045 40.5634 62.9045 37.8692C62.6029 38.2062 61.7395 37.8692 61.7395 37.8692Z" fill="#FFDCAD"/>
<path d="M43.6231 61.286C42.3808 60.8615 41.5091 60.1768 41.1002 59.8068C40.5869 59.3423 40.5481 58.5493 41.0124 58.0367C41.4771 57.5229 42.2699 57.4846 42.7831 57.9491C43.1946 58.3213 44.3261 59.1838 45.9402 59.1491C47.1743 59.1218 48.0915 58.5745 48.5286 58.2514C49.0844 57.839 49.8696 57.9561 50.2818 58.5126C50.6934 59.0688 50.5765 59.8534 50.02 60.2656C49.3443 60.7662 47.9228 61.6123 45.9948 61.6548C45.1026 61.6745 44.3069 61.5197 43.6231 61.286Z" fill="#C06100"/>
<path d="M38.4146 50.685C40.9884 50.685 43.0748 48.5985 43.0748 46.0248C43.0748 43.451 40.9884 41.3646 38.4146 41.3646C35.8409 41.3646 33.7545 43.451 33.7545 46.0248C33.7545 48.5985 35.8409 50.685 38.4146 50.685Z" fill="#AEEFFF"/>
<path d="M52.3951 50.685C54.9689 50.685 57.0553 48.5985 57.0553 46.0248C57.0553 43.451 54.9689 41.3646 52.3951 41.3646C49.8214 41.3646 47.7349 43.451 47.7349 46.0248C47.7349 48.5985 49.8214 50.685 52.3951 50.685Z" fill="#AEEFFF"/>
<path d="M47.7908 47.19C47.1468 47.19 46.6257 46.6689 46.6257 46.0249C46.6257 45.3821 46.1035 44.8599 45.4607 44.8599C44.8178 44.8599 44.2956 45.3821 44.2956 46.0249C44.2956 46.6689 43.7745 47.19 43.1306 47.19C42.4866 47.19 41.9655 46.6689 41.9655 46.0249C41.9655 44.0976 43.5334 42.5298 45.4607 42.5298C47.3879 42.5298 48.9558 44.0976 48.9558 46.0249C48.9558 46.6689 48.4346 47.19 47.7908 47.19Z" fill="#7047F0"/>
<path d="M33.8103 46.0246H27.9532C27.3092 46.0246 26.7881 45.5036 26.7881 44.8596C26.7881 44.2156 27.3092 43.6945 27.9532 43.6945H33.8103C34.4543 43.6945 34.9754 44.2156 34.9754 44.8596C34.9754 45.5036 34.4542 46.0246 33.8103 46.0246Z" fill="#7047F0"/>
<path d="M62.9047 46.0246H57.1113C56.4674 46.0246 55.9463 45.5036 55.9463 44.8596C55.9463 44.2156 56.4674 43.6945 57.1113 43.6945H62.9047C63.5487 43.6945 64.0697 44.2156 64.0697 44.8596C64.0697 45.5036 63.5487 46.0246 62.9047 46.0246Z" fill="#7047F0"/>
<path d="M38.4705 51.8499C35.2586 51.8499 32.6453 49.2365 32.6453 46.0246C32.6453 42.8127 35.2586 40.1994 38.4705 40.1994C41.6824 40.1994 44.2957 42.8127 44.2957 46.0246C44.2957 49.2365 41.6822 51.8499 38.4705 51.8499ZM38.4705 42.5295C36.5432 42.5295 34.9754 44.0974 34.9754 46.0246C34.9754 47.9519 36.5432 49.5198 38.4705 49.5198C40.3978 49.5198 41.9656 47.9519 41.9656 46.0246C41.9656 44.0974 40.3978 42.5295 38.4705 42.5295Z" fill="#7047F0"/>
<path d="M52.4511 51.8499C49.2392 51.8499 46.6259 49.2365 46.6259 46.0246C46.6259 42.8127 49.2392 40.1994 52.4511 40.1994C55.663 40.1994 58.2763 42.8127 58.2763 46.0246C58.2763 49.2365 55.6628 51.8499 52.4511 51.8499ZM52.4511 42.5295C50.5238 42.5295 48.9559 44.0974 48.9559 46.0246C48.9559 47.9519 50.5238 49.5198 52.4511 49.5198C54.3784 49.5198 55.9462 47.9519 55.9462 46.0246C55.9461 44.0974 54.3784 42.5295 52.4511 42.5295Z" fill="#7047F0"/>
<path d="M68.7379 46.0004C68.0939 46.0004 67.5728 45.4794 67.5728 44.8354V30.9447C67.5728 30.3007 68.0939 29.7797 68.7379 29.7797C69.3818 29.7797 69.9029 30.3007 69.9029 30.9447V44.8354C69.9029 45.4794 69.3818 46.0004 68.7379 46.0004Z" fill="#3E435E"/>
<path d="M72.5242 24.5133L48.8262 16.3887C46.2607 15.5081 43.4311 15.5081 40.8632 16.3887L17.1652 24.5133C15.9262 24.9389 15.1264 26.0583 15.1264 27.368C15.1264 28.6777 15.9262 29.7971 17.1652 30.2226L28.7531 34.1956C28.8748 34.2365 29.0023 34.2582 29.1308 34.2582C29.1354 34.2582 29.141 34.2582 29.1457 34.2582L61.7625 33.8509C61.8854 33.8497 62.0083 33.8282 62.1254 33.7883L72.5243 30.2226C73.7633 29.7971 74.5631 28.6777 74.5631 27.368C74.5631 26.0583 73.7632 24.9389 72.5242 24.5133Z" fill="#3E435E"/>
<path d="M41.4418 36.2903C42.6772 36.2006 44.0016 36.1453 45.4378 36.1453C46.874 36.1453 48.1984 36.2005 49.4337 36.2903C54.178 36.5644 59.8149 37.3486 62.9135 39.034V29.7137C62.9135 25.7111 53.8548 23.8884 45.4378 23.8884C37.0208 23.8884 27.9621 25.7111 27.9621 29.7137V39.034C31.0607 37.3485 36.6975 36.5644 41.4418 36.2903Z" fill="#454B69"/>
<path d="M45.4369 30.3443C40.3812 30.3443 32.0056 31.0092 27.9612 33.2091V36.1695C27.9612 35.1546 34.0857 32.6744 45.4369 32.6744C56.7881 32.6744 62.9126 35.1546 62.9126 36.1695V33.2091C58.8685 31.0094 50.4928 30.3443 45.4369 30.3443Z" fill="#646E9F"/>
<path d="M45.4288 30.3444V32.6745C45.4316 32.6745 45.4341 32.6744 45.4368 32.6744C56.788 32.6744 62.9125 35.1546 62.9125 36.1695V33.2091C58.8682 31.0094 50.4926 30.3443 45.4368 30.3443C45.4342 30.3443 45.4313 30.3444 45.4288 30.3444Z" fill="#4B506C"/>
<path d="M69.8949 53.0151H67.5648C66.9214 53.0151 66.3997 52.4934 66.3997 51.85V47.1898C66.3997 45.9029 67.4429 44.8597 68.7298 44.8597C70.0168 44.8597 71.0599 45.9029 71.0599 47.1898V51.85C71.0599 52.4934 70.5383 53.0151 69.8949 53.0151Z" fill="#FFDC64"/>
<path d="M22.1362 82.4827C22.1362 80.0108 21.1542 77.6402 19.4064 75.8922L14.2327 70.7184C11.7645 73.1653 10.4856 76.601 10.4856 79.6629V86.0468C10.4856 88.3768 12.5757 90.2724 15.1458 90.2724H22.1363V82.4827H22.1362Z" fill="#F2F2F2"/>
<path d="M76.6308 70.7294L71.4681 75.8923C69.7201 77.6402 68.7381 80.0109 68.7381 82.4829V90.2725H75.7281C78.2982 90.2725 80.3883 88.377 80.3883 86.0469V79.663C80.3881 76.6084 79.115 73.1819 76.6308 70.7294Z" fill="#F2F2F2"/>
<path d="M41.5372 79.7886L41.0663 82.6128L48.7252 90.2724H51.0837L50.8966 89.1488L41.5372 79.7886Z" fill="#7047F0"/>
<path d="M40.0264 88.8539L41.4445 90.2722H44.7394L40.497 86.0297L40.0264 88.8539Z" fill="#7047F0"/>
<circle cx="45" cy="45" r="44.5" stroke="#F2F2F2"/>
</g>
</svg>

<svg width="90" height="90" fill="none" xmlns="http://www.w3.org/2000/svg"><circle cx="45" cy="45" r="45" fill="#fff"/><mask id="a" maskUnits="userSpaceOnUse" x="0" y="0" width="90" height="90"><circle cx="45" cy="45" r="45" fill="#C4C4C4"/></mask><g mask="url(#a)"><path d="M71.725 67.868l-10.929-2.042a1.218 1.218 0 0 0-.214-.02h-30.29c-.073 0-.144.008-.215.02L19.05 67.892c-5.622 1.575-8.564 7.113-8.564 11.771v6.384c0 2.33 2.09 4.226 4.66 4.226h60.583c2.57 0 4.66-1.896 4.66-4.226v-6.384c0-4.658-2.94-10.196-8.663-11.795z" fill="#007AFF"/><path d="M51.084 90.272l-2.168-13.006a1.165 1.165 0 0 0-1.15-.974h-4.66c-.57 0-1.055.412-1.149.974L39.79 90.272h11.294z" fill="#B097FF"/><path d="M43.107 76.292c-.298 0-.569.116-.777.303l7.77 7.77-.66-3.954-4.119-4.12h-2.214z" fill="#7047F0"/><path d="M50.089 70.489a1.165 1.165 0 0 0-1.165-1.163h-5.825c-.442 0-.844.249-1.042.644l-1.165 2.33a1.151 1.151 0 0 0-.123.525l.008 2.303a3.499 3.499 0 0 0 3.495 3.494h2.33a3.5 3.5 0 0 0 3.495-3.497l-.008-4.636z" fill="#7047F0"/><path d="M45.997 65.979l-10.478-5.85a1.164 1.164 0 0 0-1.497.316l-4.397 5.825c-.3.398-.316.943-.036 1.355l7.103 10.484a2.323 2.323 0 0 0 1.931 1.022c.614 0 1.204-.241 1.644-.68.03-.03.058-.062.084-.095l4.828-5.994c.052-.063.097-.134.134-.208l1.157-2.306c.082-.162.124-.341.124-.522v-2.33c0-.422-.229-.811-.597-1.017z" fill="#F2F2F2"/><path d="M44.861 65.979l10.478-5.85a1.164 1.164 0 0 1 1.497.316l4.397 5.825c.3.398.315.943.035 1.355l-7.103 10.484a2.323 2.323 0 0 1-1.93 1.022 2.322 2.322 0 0 1-1.644-.68 1.144 1.144 0 0 1-.084-.095l-4.828-5.994a1.091 1.091 0 0 1-.134-.208l-1.157-2.306a1.156 1.156 0 0 1-.124-.522v-2.33c0-.422.228-.811.597-1.017z" fill="#F2F2F2"/><path d="M61.74 37.87l-2.299-2.33s-7.896-2.137-24.498 0l-6.99 2.33v8.155c0 11.581 7.824 20.97 17.476 20.97 9.651 0 17.475-9.389 17.475-20.97v-8.156c-.301.337-1.165 0-1.165 0z" fill="#FFDCAD"/><path d="M43.623 61.286a7.41 7.41 0 0 1-2.523-1.48 1.253 1.253 0 1 1 1.683-1.857c.412.372 1.543 1.235 3.157 1.2 1.234-.027 2.152-.575 2.589-.898a1.253 1.253 0 1 1 1.491 2.015c-.676.5-2.097 1.346-4.025 1.389a6.834 6.834 0 0 1-2.372-.369z" fill="#C06100"/><path d="M38.415 50.685a4.66 4.66 0 1 0 0-9.32 4.66 4.66 0 0 0 0 9.32zm13.98 0a4.66 4.66 0 1 0 0-9.32 4.66 4.66 0 0 0 0 9.32z" fill="#AEEFFF"/><path d="M47.79 47.19a1.164 1.164 0 0 1-1.164-1.165 1.166 1.166 0 0 0-2.33 0 1.164 1.164 0 1 1-2.33 0 3.499 3.499 0 0 1 3.495-3.495 3.499 3.499 0 0 1 3.495 3.495c0 .644-.521 1.165-1.165 1.165zm-13.98-1.165h-5.857a1.164 1.164 0 1 1 0-2.33h5.857a1.164 1.164 0 1 1 0 2.33zm29.095 0H57.11a1.164 1.164 0 1 1 0-2.33h5.794a1.164 1.164 0 1 1 0 2.33z" fill="#7047F0"/><path d="M38.47 51.85a5.832 5.832 0 0 1-5.825-5.825 5.832 5.832 0 0 1 5.825-5.826 5.832 5.832 0 0 1 5.826 5.826 5.832 5.832 0 0 1-5.825 5.825zm0-9.32a3.499 3.499 0 0 0-3.495 3.495 3.499 3.499 0 0 0 3.495 3.495 3.499 3.499 0 0 0 3.496-3.495 3.499 3.499 0 0 0-3.495-3.495zm13.981 9.32a5.832 5.832 0 0 1-5.825-5.825 5.832 5.832 0 0 1 5.825-5.826 5.832 5.832 0 0 1 5.825 5.826 5.832 5.832 0 0 1-5.825 5.825zm0-9.32a3.5 3.5 0 0 0-3.495 3.495 3.5 3.5 0 0 0 3.495 3.495 3.499 3.499 0 0 0 3.495-3.495 3.5 3.5 0 0 0-3.495-3.495z" fill="#7047F0"/><path d="M68.738 46a1.164 1.164 0 0 1-1.165-1.165v-13.89a1.164 1.164 0 1 1 2.33 0v13.89c0 .644-.521 1.165-1.165 1.165z" fill="#3E435E"/><path d="M72.524 24.513L48.826 16.39a12.331 12.331 0 0 0-7.963 0l-23.698 8.124a2.98 2.98 0 0 0-2.039 2.855c0 1.31.8 2.43 2.04 2.855l11.587 3.973c.122.04.25.062.378.062h.015l32.617-.407c.122-.001.245-.023.362-.063l10.4-3.565a2.98 2.98 0 0 0 2.038-2.855c0-1.31-.8-2.43-2.039-2.855z" fill="#3E435E"/><path d="M41.442 36.29a54.932 54.932 0 0 1 7.992 0c4.744.274 10.38 1.059 13.48 2.744v-9.32c0-4.003-9.06-5.826-17.476-5.826-8.417 0-17.476 1.823-17.476 5.826v9.32c3.099-1.685 8.735-2.47 13.48-2.744z" fill="#454B69"/><path d="M45.437 30.344c-5.056 0-13.431.665-17.476 2.865v2.96c0-1.014 6.125-3.495 17.476-3.495 11.351 0 17.476 2.48 17.476 3.495v-2.96c-4.044-2.2-12.42-2.865-17.476-2.865z" fill="#646E9F"/><path d="M45.429 30.344v2.33h.008c11.351 0 17.476 2.48 17.476 3.495v-2.96c-4.045-2.2-12.42-2.865-17.476-2.865h-.008z" fill="#4B506C"/><path d="M69.895 53.015h-2.33A1.165 1.165 0 0 1 66.4 51.85v-4.66a2.33 2.33 0 1 1 4.66 0v4.66c0 .643-.522 1.165-1.165 1.165z" fill="#FFDC64"/><path d="M22.136 82.483a9.321 9.321 0 0 0-2.73-6.59l-5.173-5.175c-2.469 2.447-3.747 5.883-3.747 8.945v6.384c0 2.33 2.09 4.225 4.66 4.225h6.99v-7.79zM76.63 70.73l-5.162 5.162a9.32 9.32 0 0 0-2.73 6.59v7.79h6.99c2.57 0 4.66-1.895 4.66-4.225v-6.384c0-3.055-1.273-6.481-3.757-8.934z" fill="#F2F2F2"/><path d="M41.537 79.789l-.47 2.824 7.658 7.66h2.359l-.187-1.124-9.36-9.36zm-1.511 9.065l1.418 1.418h3.295l-4.242-4.242-.47 2.824z" fill="#7047F0"/><circle cx="45" cy="45" r="44.5" stroke="#F2F2F2"/></g></svg>
